X: 1
T: Paddy Fahey's
M: 6/8
L: 1/8
R: jig
K: Gmin
| BdB cAF | BAB cde | fbg afc | BAB cAF |
| B2B cAF | BAB cde | fbg afg | ecA B2F | 
| BdB cAF | BAB cde | fbg afc | BAB cAF |
| B2B cAF | BAB cde | fbg afg | ecA B2d ||
| fef Bdf | ecA BFD | E2G DGB | Acf bge |
| f2f Bdf | ecA BAD | EGc DFB | AGA B2d |
| B/d/fb afd | gec fdB | EGc DGB | Acf bge |
| f2b afa | geg fdB | EGc DFB | AGA B2F ||
